icon/cg/headset.svg

<svg viewBox="0 0 24 24" fill="none" xmlns="http://www.w3.org/2000/svg" height="1em" width="1em">
  <path fill-rule="evenodd" clip-rule="evenodd" d="M17 21C15.8954 21 15 20.1046 15 19V15C15 13.8954 15.8954 13 17 13H19V12C19 8.13401 15.866 5 12 5C8.13401 5 5 8.13401 5 12V13H7C8.10457 13 9 13.8954 9 15V19C9 20.1046 8.10457 21 7 21H3V12C3 7.02944 7.02944 3 12 3C16.9706 3 21 7.02944 21 12V21H17ZM19 15H17V19H19V15ZM7 15H5V19H7V15Z" fill="currentColor"/>
</svg>

<svg width="24" height="24" fill="none" xmlns="http://www.w3.org/2000/svg"><path fill-rule="evenodd" clip-rule="evenodd" d="M17 21a2 2 0 0 1-2-2v-4a2 2 0 0 1 2-2h2v-1a7 7 0 1 0-14 0v1h2a2 2 0 0 1 2 2v4a2 2 0 0 1-2 2H3v-9a9 9 0 0 1 18 0v9h-4Zm2-6h-2v4h2v-4ZM7 15H5v4h2v-4Z" fill="currentColor"/></svg>
